X: 49
T:Fairly Shot of Her (#159)
M:6/8
L:1/8
S:McGoun's Repository 1803
K:G
D|:E/2F/2GE E/2F/2GE|E2 B BGE|E/2F/2GE E/2F/2GE|D2 A AFD|
E/2F/2GE E/2F/2GE|E2 B BGB|cBA dcB|D2 A AFD:|
|:B/2c/2dE B2 E|B/2c/2dE BGE|B/2c/2dE B2 E|B/2c/2dB AFD|
B/2c/2dE B2 E|B/2c/2dc BGB|cBA dcB|D2 A AFD:||
%
% SEE NOTES TO #158

